X:1
T:Pour etre aymé
T:Pour etre aymé
T:Tielman Susato
C:Tielman Susato
%%score [ 1 [ 2 3 ] 4 ]
L:1/8
Q:1/4=80
M:2/2
K:C
V:1 treble nm="Superius" snm="S"
V:2 treble-8 nm="Tenor 1" snm="T 1"
V:3 treble-8 nm="Tenor 2" snm="T 2"
V:4 bass nm="Bass" snm="B"
V:1
 z4 G4- | G4 A4 | B4 c4- | c2 BA G2 c2 | A2 d2 c4 | z4 z2 G2 | E2 A2 G2 C2 | c6 B2 | A2 G3 FED | %9
w: Pour|_ es-|tre'ay- mé,|_ _ _ _ pour|es- tre'ay- mé,|pour|es- tre'ay- mé par|gran- de|loy- aul- * * *|
 C2 G2 c4- | c2 B2 A2 G2- | G2 FE D3 C | D2 E2 F4 | E8 | z8 | z2 G4 G2 | A4 G2 E2- | E2 E2 F4 | %18
w: té, par gran-|* * de loy-|* * * aul- *||té,||ne re-|gar- dez, ne|_ re- gar-|
 E4 z4 | z4 z2 G2 | A2 B2 c2 d2 | G2 d3 c c2- | c2 B2 c4 | z2 c2 c2 c2 | B2 G2 A3 B | %25
w: dez|à|la gran- * *|de- beaul- * *|* * te,|car bien sou-|vent, tant plus la|
 c2 A2 G3 F/E/ | F2 E3 C D2 | E4 z2 C2 | E2 E2 F2 F2 | G3 F E2 G2 | F4 E4 | z8 | z2 E2 G2 G2 | %33
w: da- m'est bel- * *||le, tant|plus ell'- est à|son a- my re-|bel- le,||tant plus ell'-|
 A2 A2 B3 A | G2 B2 A4 | G6 E2 | A4 A4 | G4 z2 G2 | A4 c4- | c2 BA B4- | B2 B2 c2 B2 | A2 B4 AG | %42
w: est à son a-|my re- bel-|le, ne|luy mon-|strant, ne|luy mon-|* * * strant|_ que tout- te|cru aul _ _|
 A2 G2 z2 d2 | e3 d c2 d2- | dcBA G2 e2 | d2 c4 B2 | c4 z2 E2 | A4 A4 | G4 z2 G2 | A4 c4- | %50
w: _ té, que|tout- te cru- aul-|||té, ne|luy mon-|strant, ne|luy mon-|
 c2 BA B4- | B2 B2 c2 B2 | A2 B4 AG | A2 G2 z2 d2 | e3 d c2 d2- | dcBA G2 e2 | d2 c4 B2 | c8- | %58
w: strant _ _ _|_ que tout- te|cru- aul- * *|* té, que|tout- te cru- aul-|||té.|
 c8- | c8 |] %60
w: _||
V:2
 d8 | e4 f4 | g8 | z2 g2 e2 a2- | ag f2 e2 c2 | c2 d2 e4- | e2 c2 g4 | f2 e4 dc | d2 e3 dcB | %9
w: Pour|es- tr'ay-|mé,|pour es- tre'ay-|* * * mé, pour|es- tr'ay- mé|_ par gran-|de loy- * *|* aul- * * *|
 A2 G2 z2 c2 | g4 f2 e2- | e2 dc dcBA/G/ | A2 c4 B2 | c4 z2 e2- | e2 e2 f4 | e4 z2 c2- | %16
w: * té, par|gran- de loy-||* aul- *|té, ne|_ re- gar-|dez, ne|
 c2 d2 e3 f | g4 c4 | z2 c2 d2 e2- | e2 f2 g4 | c2 g2 e2 d2 | e2 fg a2 f2 | g4 e2 f2 | %23
w: _ re- gar- *|* dez,|ne re- gar-|* dez à|la gran- * *|* * * * de|beaul- té, car|
 f2 f2 e2 c2 | d2 e2 f2 d2 | c3 d e4 | d2 c4 B2 | A2 G2 z2 c2 | c2 c2 d2 d2 | e3 d c2 e2 | %30
w: bien sou- vent, tant|plus la da- *||m'est- bel- *|* le, tant|plus ell'- est à|son a- my re-|
 d3 c BA G2- | G2 c4 B2 | c4 z4 | z4 z2 d2 | e2 e2 f2 f2 | g3 f e2 g2 | f3 e/d/ c2 d2 | e4 z2 e2 | %38
w: bel- * * * *||le,|tant|plus ell'- est à|son a- my re-|bel- * * * *|le, ne|
 c2 f2 e3 f | g8- | g4 z2 g2 | a2 g2 e3 d/c/ | d2 e2 f4 | edcB A4 | z2 G2 g4 | g2 f2 g4 | %46
w: luy mon- strant, _|_|* que|tout- te cru- * *|aul- té, que|tout _ _ _ te|cru- aul-||
 e4 z2 e2 | f3 e/d/ c2 d2 | e4 z2 e2 | c2 f2 e3 f | g8- | g4 z2 g2 | a2 g2 e3 d/c/ | d2 e2 f4 | %54
w: té, luy|mon- * * * *|strant, ne|luy mon- strant _|_|* que|tout- te cru- * *|aul- * *|
 edcB A4 | z2 G2 g4 | g2 f2 g4 | e4 z2 g2 | a3 g f2 g2- | gfed e4 |] %60
w: * * * * té,|que tout-|te cru- aul-|té, que|tout- te cru- aul-|* * * * té.|
V:3
 z8 | z2 c4 A2 | d4 c4 | z2 G4 A2- | A2 B2 c4 | z2 G2 c4- | c2 A2 B2 c2 | A2 G2 z2 G2 | %8
w: |Pour es-|tr'ay- mé,|pour es-|* tr'ay- mé,|pour es-|* tr'ay- * *|* mé par|
 A2 B2 c2 G2 | c3 B A2 A2 | G4 z2 G2 | c4 B2 G2 | A2 G4 F2 | G4 z2 G2- | G2 G2 A4 | G8 | %16
w: gran- * * de|loy- * * aul-|té, par|gran- * de|loy- aul- *|té ne|_ re- gar-|dez,|
 z4 z2 G2- | G2 G2 A3 B | c2 G2 G2 G2 | A4 G4 | z2 G2 A2 B2 | c2 d2 e2 dc | d4 c4- | c4 z4 | z8 | %25
w: ne|_ re- gar- *|* dez, ne re-|gar- dez,|à la gran-|* * * de _|beaul- té,|_||
 z2 c2 c2 c2 | B2 G2 A2 B2 | c6 A2 | G3 A F4 | E4 z4 | z4 z2 C2 | E2 E2 F2 F2 | G3 F E2 c2- | %33
w: car bien sou-|vent tant plus la|da- m'est|bel- * *|le,|tant|plus ell'- est à|son a- my re-|
 cB A2 G2 B2 | B2 B2 c2 d2 | e3 d c2 e2 | d3 c/B/ AG A2 | B2 G2 A2 cB | AG c3 dec | d6 d2 | %40
w: * * bel- le, tant|plus ell'- est à|son a- my re-|bel- * * * * *|le, ne luy mon- *|* * strant _ _ _|_ que|
 e2 d2 c2 d2- | dcBA G2 e2 | dc c4 B2 | c2 e2 f3 e | d4 e3 d/c/ | B2 c2 d4 | c4 z2 c2 | A4 A4 | %48
w: tout- te cru- aul-|* * * * té, que|tout- * * te|cru- aul- * *|||té, ne|luy mon-|
 B2 G2 A2 cB | AG c3 dec | d6 d2 | e2 d2 c2 d2- | dcBA G2 e2 | dc c4 B2 | c2 e2 f3 e | d4 e3 d/c/ | %56
w: strant, ne luy mon- *|* * strant _ _ _|_ que|tout- te cru- aul-|* * * * té, que|tout- * * te|cru- aul- * *|te, yout- * *|
 B2 c2 d4 | c8- | c8- | c8 |] %60
w: te cru- aul-|té.|_||
V:4
 G,8 | E,4 A,4 | G,4 z4 | C,8 | D,4 E,2 F,2- | F,2 E,D, C,4 | z8 | z2 C,2 G,4 | F,2 E,2 C,4 | %9
w: Pour|es- tr'ay-|mé,|pour|es- tr'ay- _|_ _ _ mé,||par gran-|de loy- aul-|
 C,4 z4 | z8 | z2 C,2 G,4 | F,2 E,2 D,4 | C,8- | C,4 z4 | z2 E,4 E,2 | F,4 E,2 C,2- | C,2 C,2 F,4 | %18
w: té,||par gran-|de loy- aul-|té,|_|ne re-|gar- dez, ne|_ re- gar-|
 C,4 z2 C,2- | C,2 D,2 E,4 | F,2 G,2 C,2 G,2 | E,2 D,2 A,4 | G,4 C,2 F,2 | F,2 F,2 C,4 | z4 F,4 | %25
w: dez, ne|_ re- gar-|dez à la gran-|* * de|beaul- té, car-|bien sou- vent,|car|
 F,2 F,2 E,2 C,2 | D,2 E,2 F,2 D,2 | C,4 C,4- | C,4 z4 | z2 C,2 C,2 C,2 | D,2 D,2 E,3 D, | %31
w: bien sou vent tant|plus la da- m'est|bel- le,|_|tant plus ell'-|est à son a-|
 C,2 E,2 D,4 | C,2 C,2 E,2 E,2 | F,2 F,2 G,3 F, | E,2 G,2 F,4 | E,6 C,2 | D,4 F,4 | E,4 z2 E,2 | %38
w: my re- bel-|le, tant plus ell'-|est à son a-|my re- bel-|le, en|luy mon-|strant, en|
 F,4 A,4 | G,8 | z2 G,2 A,2 G,2 | F,2 G,3 F, E,2 | F,2 E,2 D,4 | C,4 z2 F,2 | G,3 F, E,D, C,2 | %45
w: luy mon-|strant|que tout- te|cru- aul- * *||té, que|tout- te cru- * *|
 G,2 A,2 G,4 | C,4 z2 C,2 | D,4 F,4 | E,4 z2 E,2 | F,4 A,4 | G,8 | z2 G,2 A,2 G,2 | %52
w: * * aul-|té, ne|luy mon|strant, ne|luy mon-|strant|que tout- te|
 F,2 G,3 F, E,2 | F,2 E,2 D,4 | C,4 z2 F,2 | G,3 F, E,D, C,2 | G,2 A,2 G,4 | C,4 C,4 | F,6 E,D, | %59
w: cru- aul- * *||té, que|tout- te cru- * *|* * aul-|té, cru-|aul- * *|
 C,8 |] %60
w: té.|

